food-takeout-box-outline.svg

<svg fill="currentColor" viewBox="0 0 24 24"><path d="m7.79 18-.51-7h9.46l-.51 7zM9.83 5h4.33l2.8 2.73L16.87 9H7.12l-.09-1.27zM22 7.46l-1.41-1.41L19 7.63l.03-.56L15 3H9L4.97 7.07l.03.5L3.41 6 2 7.44l3.23 3.11.7 9.45h12.14l.7-9.44z"/></svg>

<svg  viewBox="0 0 24 24" fill="currentColor"><path  d="M7.79 18L7.28 11H16.74L16.23 18H7.79M9.83 5H14.16L16.96 7.73L16.87 9H7.12L7.03 7.73L9.83 5M22 7.46L20.59 6.05L19 7.63L19.03 7.07L15 3H9L4.97 7.07L5 7.57L3.41 6L2 7.44L5.23 10.55L5.93 20H18.07L18.77 10.56L22 7.46Z"/></svg>
